d1 $ slow 3 $ every 4 (# n "0 3 -5") $ n "0 3 5" # s "k2" # cps 1.3

d2 $ euclidFull 5 8 (n "7") (n "0") # s "k2" # cps 1

d1 $ every 3 ("t" <~) $ struct "1(7,12,3)" $ sound "drum"

d1  $ s "[[bd sd], [linnhats*8]]"
    # clouds 0.1 0.5 0.05 0.1
    # cloudsblend 1 0.2 0.33 0.8