hello 

d1 $ stack[
    slow 2 $ ghost $ n "1 3 7 5" 
        # s "psin" # room 0.5 # gain 0.6,
    every 4 (fast 2) . euclid 3 8 $ s "ilBd",
    s "tascan" # cut "2",
    off 0.125 (# pan square) $ echo 1 0.32 0.5 $ s "hih:3*16?" # hpf 6000 # hpq 0.8 # gain 0.5  
]

d2 $ s "bd" # speed (range 0.5 1.5 saw)

hush