d1 $ echo "<3 5>" (-0.11) 0.8 $ asdf "emanative" # pan circle 
    # speed "<5 0.2 4 0.12>"
    # gain (ramp1 3 0.5 1.1 perlin)
    # cps 0.4
    # cut "<0 1 0 0>"

d2 $ echo "<3 5>" 0.111 0.8 $ euclid 3 8 $ s "perc:3"
    # pan zig

d2 $ silence
