d2 $ every 4 (hurry 2) 
    $ chunk 4 (hurry 2)
    $ jux rev 
    $ chop 5 
    $ s "bd"

  


do
  d1
    $ fast "1 2 [0 1]/2 2"
    $ jux (iter 4)
    $ every 4 (chunk 4 (rev))
    $ everby 8 (chunk 5 (fast 2))
    $ s "amencutup" + n "0 1 2 3 4 5 6 7"
    # lpf 3000
    -- # room 0.2
    # legato 1
    # cps "<0.4 0.75 1>"
    # pan (choose(speaker))


d1
  $ striate' 4 0.5
  $ slow 5
  $ s "juno(8,3)"
  # gain 0.9

d1 $ silence

d4 $ stut' 6 (0.125) ((|*| speed "1.8")) $ sound "v:1(3,1)"

