
setcps(90/60/4)


d1 $ striate 1 $ off "4s" ( (|- gain 0.9)) 
    $ slow 4 $ n "d'min c'min d'min e'min" 
    # s "superfm" 
    # legato 1
    # pan "0.25 0.75"
    # gain 0.8



d2 $ every 4 (fast 2) $ slow 2 $ s "ilBd [~ ilBd]  ~ ilClap "

d3 $ every 3 (jux rev) $ chop 4 $ n "1 3 0 2 " # s "git" # cut 1 # gain 1.3 

d3 silence

d3 $ chop 6
    $ slow 4 
    $ n "f'min9 e'min9" 
    # s "superhammond" 
    # legato 1
    # pan "0.2 0.8"
    # voice 6   

d2 $ s "bd"